X: 40
M:C|
L:1/8
K:D
vABAF ABde|faef dBBd|ABAF ABde|faef d2 d2|
faaa fbbb|afef dBB2|(fa)aa fbbc'|d'c'b^a b2b2|
faaa fbbb|afef dBBd|ABAF ABde|faef d2 d2:|


